picto/arrow-pointing-left-and-down-green-framed.svg

<svg class="color-immutable" width="30" height="30" viewBox="0 0 30 30" fill="none" xmlns="http://www.w3.org/2000/svg"><path d="M30 0H0V30H30V0Z" fill="#237F52"/><path d="M6 24L18.923 23.8051L23.3279 19.4003L14.3243 19.2064L21.5539 11.9768L19.7886 10.2114L18.0235 8.44628L10.7938 15.6759L10.6 6.6723L6.19507 11.0772L6 24Z" fill="white"/></svg>

<svg class="color-immutable" width="30" height="30" viewBox="0 0 30 30" fill="none" xmlns="http://www.w3.org/2000/svg"><g clip-path="url(#a)"><path d="M30 0H0v30h30V0Z" fill="#237F52"/><path d="m6 24 12.923-.195 4.405-4.405-9.004-.194 7.23-7.23-1.765-1.765-1.766-1.765-7.23 7.23-.193-9.004-4.405 4.405L6 24Z" fill="#fff"/></g><defs><clipPath id="a"><path fill="#fff" d="M0 0h30v30H0z"/></clipPath></defs></svg>
